X: 26
T: the White Cockade
O: Playford, 1687
R: march
Z: 2011 John Chambers <jc:trillian.mit.edu>
B: Playford "Apollo's Banquet", 1687, just called "a Scots tune"
M: C|
L: 1/8
K: G
"(D7)"GA \
| "G"B2Bd cBAG | "G"B2B2 B2GA | "G"B2Bd cBAG | "D7"B2A2 A2GA \
| "G"B2Bd cBAG | "G"B2d2 "Em"g2-ga | "C"bagf "D7"efge | "G"d2B2 "(D7)"B2 :|
|: "(D7)"Bc \
| "G"d2B2 g2Bc | "G"d2d2 "(D7)"d2Bc | "G"d2B2 "Em"g2fg | "Am"a2A2 "D7"A2GA \
| "G"B2d2 "D7"cBAG | "G"B2d2 "Em"g2-ga | "C"bagf "D7"efge | "G"d2B2 "(D7)"B2 :|

%%sep 2 1 500

